src/Static/Positions/ks-position-59.svg

<?xml version="1.0" encoding="UTF-8"?>
<svg width="246px" height="136px" viewBox="0 0 246 136" version="1.1" xmlns="http://www.w3.org/2000/svg" xmlns:xlink="http://www.w3.org/1999/xlink">
    <title>sex-etsy-59</title>
    <defs>
        <path d="M77.6314,72.5535 C76.6305,69.4246 76.9078,66.0925 78.4117,63.1721 L98.0875,24.9739 L65.8935,28.837 C64.6851,31.8383 64.2628,35.0873 64.1651,38.2263 C64.1184,38.6054 64.083,38.9882 64.0708,39.3773 L62.4873,89.8583 L10.8398,96.786 C3.9975,97.703 -0.8052,103.994 0.1123,110.8368 C0.9546,117.1151 6.3208,121.6757 12.4858,121.6757 C13.0395,121.6757 13.5996,121.6395 14.1631,121.5634 L76.3105,113.2274 C82.3691,112.4149 86.9511,107.3407 87.1425,101.2304 L87.7771,80.999 C86.3664,80.8159 84.9843,80.3934 83.7144,79.7395 C80.7926,78.2346 78.6334,75.6829 77.6314,72.5535 Z" id="path-1"></path>
        <filter x="-8.7%" y="-7.1%" width="118.5%" height="117.9%" filterUnits="objectBoundingBox" id="filter-2">
            <feMorphology radius="1.5" operator="dilate" in="SourceAlpha" result="shadowSpreadOuter1"></feMorphology>
            <feOffset dx="0" dy="2" in="shadowSpreadOuter1" result="shadowOffsetOuter1"></feOffset>
            <feGaussianBlur stdDeviation="2" in="shadowOffsetOuter1" result="shadowBlurOuter1"></feGaussianBlur>
            <feComposite in="shadowBlurOuter1" in2="SourceAlpha" operator="out" result="shadowBlurOuter1"></feComposite>
            <feColorMatrix values="0 0 0 0 0   0 0 0 0 0   0 0 0 0 0  0 0 0 0.5 0" type="matrix" in="shadowBlurOuter1"></feColorMatrix>
        </filter>
        <path d="M119.2982,56.1652 C119.3836,56.182 119.466,56.1986 119.5512,56.2154 L126.69,39.4314 C128.3082,35.6223 132.0299,33.1609 136.1705,33.1609 C137.5582,33.1609 138.9137,33.4382 140.1988,33.9846 C142.731,35.0618 144.692,37.0598 145.7203,39.6116 C146.7486,42.1633 146.7223,44.9631 145.6451,47.4949 L140.6997,59.1227 C147.3062,58.2127 153.0387,54.6561 154.4516,48.9862 C156.5806,40.449 151.9438,28.074 137.3013,23.0389 C134.1107,21.9627 131.1096,21.0352 128.2076,20.2211 L112.354,50.9987 C114.402,52.6575 116.7041,54.3959 119.2982,56.1652 Z" id="path-3"></path>
        <filter x="-20.9%" y="-17.4%" width="140.8%" height="144.9%" filterUnits="objectBoundingBox" id="filter-4">
            <feMorphology radius="1.5" operator="dilate" in="SourceAlpha" result="shadowSpreadOuter1"></feMorphology>
            <feOffset dx="0" dy="2" in="shadowSpreadOuter1" result="shadowOffsetOuter1"></feOffset>
            <feGaussianBlur stdDeviation="2" in="shadowOffsetOuter1" result="shadowBlurOuter1"></feGaussianBlur>
            <feComposite in="shadowBlurOuter1" in2="SourceAlpha" operator="out" result="shadowBlurOuter1"></feComposite>
            <feColorMatrix values="0 0 0 0 0   0 0 0 0 0   0 0 0 0 0  0 0 0 0.5 0" type="matrix" in="shadowBlurOuter1"></feColorMatrix>
        </filter>
        <circle id="path-5" cx="180.9564" cy="29.766" r="22.5"></circle>
        <filter x="-18.9%" y="-14.4%" width="137.8%" height="137.8%" filterUnits="objectBoundingBox" id="filter-6">
            <feMorphology radius="1.5" operator="dilate" in="SourceAlpha" result="shadowSpreadOuter1"></feMorphology>
            <feOffset dx="0" dy="2" in="shadowSpreadOuter1" result="shadowOffsetOuter1"></feOffset>
            <feGaussianBlur stdDeviation="2" in="shadowOffsetOuter1" result="shadowBlurOuter1"></feGaussianBlur>
            <feComposite in="shadowBlurOuter1" in2="SourceAlpha" operator="out" result="shadowBlurOuter1"></feComposite>
            <feColorMatrix values="0 0 0 0 0   0 0 0 0 0   0 0 0 0 0  0 0 0 0.5 0" type="matrix" in="shadowBlurOuter1"></feColorMatrix>
        </filter>
        <path d="M113.6764,70.0276 L118.5917,58.4712 C115.0616,56.0963 112.0378,53.7669 109.4573,51.5987 L128.526,14.5794 C130.2213,11.2898 129.9605,7.3328 127.8482,4.2937 C125.7369,1.2556 122.1295,-0.3699 118.4449,0.0715 L58.2994,7.2883 C52.816,7.9461 48.9039,12.9251 49.5621,18.4085 C50.2203,23.8919 55.1959,27.8088 60.6822,27.1458 L102.1168,22.1741 L80.4566,64.2253 C77.9273,69.135 79.857,75.1653 84.7672,77.6946 C86.232,78.449 87.7965,78.8064 89.3385,78.8064 C89.9657,78.8064 90.5843,78.7263 91.1956,78.6105 C91.8203,78.8091 92.4726,79.0005 93.1824,79.1766 C105.7762,82.302 113.6656,86.0515 119.1124,89.8369 L113.8082,78.3894 C112.5855,75.7517 112.5377,72.7039 113.6764,70.0276 Z" id="path-7"></path>
        <filter x="-10.6%" y="-7.2%" width="121.2%" height="123.1%" filterUnits="objectBoundingBox" id="filter-8">
            <feMorphology radius="1.5" operator="dilate" in="SourceAlpha" result="shadowSpreadOuter1"></feMorphology>
            <feOffset dx="0" dy="2" in="shadowSpreadOuter1" result="shadowOffsetOuter1"></feOffset>
            <feGaussianBlur stdDeviation="2" in="shadowOffsetOuter1" result="shadowBlurOuter1"></feGaussianBlur>
            <feComposite in="shadowBlurOuter1" in2="SourceAlpha" operator="out" result="shadowBlurOuter1"></feComposite>
            <feColorMatrix values="0 0 0 0 0   0 0 0 0 0   0 0 0 0 0  0 0 0 0.5 0" type="matrix" in="shadowBlurOuter1"></feColorMatrix>
        </filter>
        <path d="M136.7395,68.4345 L134.4234,73.8801 L139.6414,85.1417 C141.0683,84.1926 142.7502,83.6623 144.5065,83.6623 C146.5807,83.6623 148.5963,84.4006 150.1823,85.7404 C151.9782,87.256 153.0758,89.3815 153.2731,91.7238 C153.4704,94.0661 152.7438,96.3449 151.2272,98.1408 L147.6352,102.3943 L150.0582,107.6238 C150.3287,108.2076 150.5318,108.8049 150.6858,109.4071 C157.544,108.2659 162.1469,102.9384 163.3543,96.3018 C158.4784,91.4456 157.2671,87.45 156.8847,84.1746 C157.5897,82.6256 158.2704,81.0669 158.868,79.6007 C159.557,77.91 160.1338,76.3447 160.4953,75.0754 C161.3698,75.1152 162.1562,74.5034 162.301,73.6184 C162.4571,72.6645 161.8103,71.7648 160.8565,71.6087 C160.7851,71.5971 160.7151,71.5985 160.6445,71.5956 C158.6404,65.1713 149.9188,57.4329 142.4063,68.3224 C141.9921,68.9228 141.583,69.5955 141.1775,70.3126 C139.646,69.6981 138.1725,69.0702 136.7395,68.4345 Z" id="path-9"></path>
        <filter x="-29.9%" y="-14.0%" width="159.6%" height="136.9%" filterUnits="objectBoundingBox" id="filter-10">
            <feMorphology radius="1.5" operator="dilate" in="SourceAlpha" result="shadowSpreadOuter1"></feMorphology>
            <feOffset dx="0" dy="2" in="shadowSpreadOuter1" result="shadowOffsetOuter1"></feOffset>
            <feGaussianBlur stdDeviation="2" in="shadowOffsetOuter1" result="shadowBlurOuter1"></feGaussianBlur>
            <feComposite in="shadowBlurOuter1" in2="SourceAlpha" operator="out" result="shadowBlurOuter1"></feComposite>
            <feColorMatrix values="0 0 0 0 0   0 0 0 0 0   0 0 0 0 0  0 0 0 0.5 0" type="matrix" in="shadowBlurOuter1"></feColorMatrix>
        </filter>
        <path d="M189.3109,122.3583 C194.2209,125.4793 201.2903,126.504 211.7542,121.4143 C226.8361,114.0784 231.6121,118.112 233.3172,122.3224 C235.0224,126.5328 238.2681,112.8619 223.8498,107.8469 C219.7133,106.4082 215.1003,107.2937 210.5606,108.8124 C210.3163,109.3239 210.0594,109.8321 209.775,110.3324 C205.442,117.9551 197.5045,122.2665 189.3109,122.3583 Z" id="path-11"></path>
        <filter x="-25.4%" y="-36.4%" width="144.1%" height="195.3%" filterUnits="objectBoundingBox" id="filter-12">
            <feMorphology radius="1.5" operator="dilate" in="SourceAlpha" result="shadowSpreadOuter1"></feMorphology>
            <feOffset dx="0" dy="2" in="shadowSpreadOuter1" result="shadowOffsetOuter1"></feOffset>
            <feGaussianBlur stdDeviation="2" in="shadowOffsetOuter1" result="shadowBlurOuter1"></feGaussianBlur>
            <feComposite in="shadowBlurOuter1" in2="SourceAlpha" operator="out" result="shadowBlurOuter1"></feComposite>
            <feColorMatrix values="0 0 0 0 0   0 0 0 0 0   0 0 0 0 0  0 0 0 0.5 0" type="matrix" in="shadowBlurOuter1"></feColorMatrix>
        </filter>
        <circle id="path-13" cx="189.072408" cy="98.5739112" r="21.4987659"></circle>
        <filter x="-19.8%" y="-15.1%" width="139.5%" height="139.5%" filterUnits="objectBoundingBox" id="filter-14">
            <feMorphology radius="1.5" operator="dilate" in="SourceAlpha" result="shadowSpreadOuter1"></feMorphology>
            <feOffset dx="0" dy="2" in="shadowSpreadOuter1" result="shadowOffsetOuter1"></feOffset>
            <feGaussianBlur stdDeviation="2" in="shadowOffsetOuter1" result="shadowBlurOuter1"></feGaussianBlur>
            <feComposite in="shadowBlurOuter1" in2="SourceAlpha" operator="out" result="shadowBlurOuter1"></feComposite>
            <feColorMatrix values="0 0 0 0 0   0 0 0 0 0   0 0 0 0 0  0 0 0 0.5 0" type="matrix" in="shadowBlurOuter1"></feColorMatrix>
        </filter>
        <path d="M137.782,86.7853 C137.8002,86.7638 137.8212,86.7455 137.8396,86.7241 L131.9069,73.9202 L143.529,46.5945 C145.2585,42.5286 143.3649,37.8308 139.2985,36.1013 C135.2311,34.3713 130.5339,36.2669 128.8063,40.3318 L115.7926,70.928 C114.9068,73.01 114.9439,75.3699 115.8951,77.4226 L126.4503,100.2027 L137.782,86.7853 Z" id="path-15"></path>
        <filter x="-29.3%" y="-10.0%" width="158.6%" height="128.2%" filterUnits="objectBoundingBox" id="filter-16">
            <feMorphology radius="1.5" operator="dilate" in="SourceAlpha" result="shadowSpreadOuter1"></feMorphology>
            <feOffset dx="0" dy="2" in="shadowSpreadOuter1" result="shadowOffsetOuter1"></feOffset>
            <feGaussianBlur stdDeviation="2" in="shadowOffsetOuter1" result="shadowBlurOuter1"></feGaussianBlur>
            <feComposite in="shadowBlurOuter1" in2="SourceAlpha" operator="out" result="shadowBlurOuter1"></feComposite>
            <feColorMatrix values="0 0 0 0 0   0 0 0 0 0   0 0 0 0 0  0 0 0 0.5 0" type="matrix" in="shadowBlurOuter1"></feColorMatrix>
        </filter>
        <path d="M147.9713,108.5906 L145.9983,104.3325 L134.9185,117.4526 C136.4342,119.0493 138.5376,119.9558 140.7174,119.9558 C141.8434,119.9558 142.9869,119.717 144.0758,119.2127 C148.0846,117.3552 149.8287,112.5994 147.9713,108.5906 Z" id="path-17"></path>
        <filter x="-64.9%" y="-49.7%" width="226.5%" height="216.9%" filterUnits="objectBoundingBox" id="filter-18">
            <feMorphology radius="1.5" operator="dilate" in="SourceAlpha" result="shadowSpreadOuter1"></feMorphology>
            <feOffset dx="0" dy="2" in="shadowSpreadOuter1" result="shadowOffsetOuter1"></feOffset>
            <feGaussianBlur stdDeviation="2" in="shadowOffsetOuter1" result="shadowBlurOuter1"></feGaussianBlur>
            <feComposite in="shadowBlurOuter1" in2="SourceAlpha" operator="out" result="shadowBlurOuter1"></feComposite>
            <feColorMatrix values="0 0 0 0 0   0 0 0 0 0   0 0 0 0 0  0 0 0 1 0" type="matrix" in="shadowBlurOuter1"></feColorMatrix>
        </filter>
        <path d="M149.4704,96.6569 C151.7868,93.9143 151.4411,89.8132 148.6979,87.4973 C145.9557,85.1804 141.8532,85.5256 139.5387,88.2692 L121.2555,109.9186 L90.8258,111.6545 C87.2419,111.8586 84.5016,114.9299 84.7067,118.5139 C84.904,121.9719 87.7692,124.6437 91.1901,124.6437 C91.3151,124.6437 91.4401,124.6403 91.5661,124.633 L124.7878,122.738 C126.57,122.6364 128.2321,121.8063 129.3835,120.4426 L149.4704,96.6569 Z" id="path-19"></path>
        <filter x="-12.8%" y="-16.8%" width="125.6%" height="143.9%" filterUnits="objectBoundingBox" id="filter-20">
            <feMorphology radius="1.5" operator="dilate" in="SourceAlpha" result="shadowSpreadOuter1"></feMorphology>
            <feOffset dx="0" dy="2" in="shadowSpreadOuter1" result="shadowOffsetOuter1"></feOffset>
            <feGaussianBlur stdDeviation="2" in="shadowOffsetOuter1" result="shadowBlurOuter1"></feGaussianBlur>
            <feComposite in="shadowBlurOuter1" in2="SourceAlpha" operator="out" result="shadowBlurOuter1"></feComposite>
            <feColorMatrix values="0 0 0 0 0   0 0 0 0 0   0 0 0 0 0  0 0 0 0.5 0" type="matrix" in="shadowBlurOuter1"></feColorMatrix>
        </filter>
    </defs>
    <g id="Page-2" stroke="none" stroke-width="1" fill="none" fill-rule="evenodd">
        <g id="sex-etsy-59" transform="translate(6.000000, 3.000000)" fill-rule="nonzero">
            <g id="Path">
                <use fill="black" fill-opacity="1" filter="url(#filter-2)" xlink:href="#path-1"></use>
                <use stroke="#1A1A1D" stroke-width="3" fill="#4E4E50" xlink:href="#path-1"></use>
            </g>
            <g id="Path">
                <use fill="black" fill-opacity="1" filter="url(#filter-4)" xlink:href="#path-3"></use>
                <use stroke="#1A1A1D" stroke-width="3" fill="#4E4E50" xlink:href="#path-3"></use>
            </g>
            <g id="Oval">
                <use fill="black" fill-opacity="1" filter="url(#filter-6)" xlink:href="#path-5"></use>
                <use stroke="#1A1A1D" stroke-width="3" fill="#4E4E50" xlink:href="#path-5"></use>
            </g>
            <g id="Path">
                <use fill="black" fill-opacity="1" filter="url(#filter-8)" xlink:href="#path-7"></use>
                <use stroke="#1A1A1D" stroke-width="3" fill="#6F2232" xlink:href="#path-7"></use>
            </g>
            <g id="Path">
                <use fill="black" fill-opacity="1" filter="url(#filter-10)" xlink:href="#path-9"></use>
                <use stroke="#1A1A1D" stroke-width="3" fill="#6F2232" xlink:href="#path-9"></use>
            </g>
            <g id="Path">
                <use fill="black" fill-opacity="1" filter="url(#filter-12)" xlink:href="#path-11"></use>
                <use stroke="#1A1A1D" stroke-width="3" fill="#6F2232" xlink:href="#path-11"></use>
            </g>
            <g id="Oval" transform="translate(189.072408, 98.573911) rotate(-39.839319) translate(-189.072408, -98.573911) ">
                <use fill="black" fill-opacity="1" filter="url(#filter-14)" xlink:href="#path-13"></use>
                <use stroke="#1A1A1D" stroke-width="3" fill="#6F2232" xlink:href="#path-13"></use>
            </g>
            <g id="Path">
                <use fill="black" fill-opacity="1" filter="url(#filter-16)" xlink:href="#path-15"></use>
                <use stroke="#1A1A1D" stroke-width="3" fill="#4E4E50" xlink:href="#path-15"></use>
            </g>
            <g id="Path">
                <use fill="black" fill-opacity="1" filter="url(#filter-18)" xlink:href="#path-17"></use>
                <use stroke="#1A1A1D" stroke-width="3" fill="#4E4E50" xlink:href="#path-17"></use>
            </g>
            <g id="Path">
                <use fill="black" fill-opacity="1" filter="url(#filter-20)" xlink:href="#path-19"></use>
                <use stroke="#1A1A1D" stroke-width="3" fill="#6F2232" xlink:href="#path-19"></use>
            </g>
        </g>
    </g>
</svg>

<svg xmlns="http://www.w3.org/2000/svg" width="246" height="136" xmlns:xlink="http://www.w3.org/1999/xlink"><title>sex-etsy-59</title><defs><path id="b" d="M77.63 72.55c-1-3.13-.72-6.46.78-9.38l19.7-38.2-32.2 3.87c-1.2 3-1.64 6.25-1.73 9.4-.05.37-.1.75-.1 1.14L62.5 89.86 10.83 96.8C4 97.7-.8 104 .1 110.83c.85 6.28 6.22 10.84 12.4 10.84.54 0 1.1-.04 1.66-.12l62.15-8.33c6.07-.82 10.65-5.9 10.84-12L87.78 81c-1.4-.18-2.8-.6-4.07-1.26-2.9-1.5-5.07-4.06-6.07-7.2z"/><filter id="a" width="118.5%" height="117.9%" x="-8.7%" y="-7.1%" filterUnits="objectBoundingBox"><feMorphology radius="1.5" operator="dilate" in="SourceAlpha" result="shadowSpreadOuter1"/><feOffset dy="2" in="shadowSpreadOuter1" result="shadowOffsetOuter1"/><feGaussianBlur stdDeviation="2" in="shadowOffsetOuter1" result="shadowBlurOuter1"/><feComposite in="shadowBlurOuter1" in2="SourceAlpha" operator="out" result="shadowBlurOuter1"/><feColorMatrix values="0 0 0 0 0 0 0 0 0 0 0 0 0 0 0 0 0 0 0.5 0" in="shadowBlurOuter1"/></filter><path id="d" d="M119.3 56.17c.08 0 .17.03.25.05l7.14-16.8c1.6-3.8 5.33-6.26 9.47-6.26 1.4 0 2.74.28 4.03.82 2.53 1.08 4.5 3.08 5.52 5.63 1.03 2.56 1 5.36-.07 7.9L140.7 59.1c6.6-.9 12.34-4.46 13.75-10.13 2.13-8.55-2.5-20.93-17.15-25.96-3.2-1.08-6.2-2-9.1-2.82L112.36 51c2.05 1.66 4.35 3.4 6.95 5.17z"/><filter id="c" width="140.8%" height="144.9%" x="-20.9%" y="-17.4%" filterUnits="objectBoundingBox"><feMorphology radius="1.5" operator="dilate" in="SourceAlpha" result="shadowSpreadOuter1"/><feOffset dy="2" in="shadowSpreadOuter1" result="shadowOffsetOuter1"/><feGaussianBlur stdDeviation="2" in="shadowOffsetOuter1" result="shadowBlurOuter1"/><feComposite in="shadowBlurOuter1" in2="SourceAlpha" operator="out" result="shadowBlurOuter1"/><feColorMatrix values="0 0 0 0 0 0 0 0 0 0 0 0 0 0 0 0 0 0 0.5 0" in="shadowBlurOuter1"/></filter><circle id="f" cx="180.956" cy="29.766" r="22.5"/><filter id="e" width="137.8%" height="137.8%" x="-18.9%" y="-14.4%" filterUnits="objectBoundingBox"><feMorphology radius="1.5" operator="dilate" in="SourceAlpha" result="shadowSpreadOuter1"/><feOffset dy="2" in="shadowSpreadOuter1" result="shadowOffsetOuter1"/><feGaussianBlur stdDeviation="2" in="shadowOffsetOuter1" result="shadowBlurOuter1"/><feComposite in="shadowBlurOuter1" in2="SourceAlpha" operator="out" result="shadowBlurOuter1"/><feColorMatrix values="0 0 0 0 0 0 0 0 0 0 0 0 0 0 0 0 0 0 0.5 0" in="shadowBlurOuter1"/></filter><path id="h" d="M113.68 70.03l4.9-11.56c-3.52-2.37-6.54-4.7-9.12-6.87l19.07-37.02c1.7-3.3 1.43-7.25-.68-10.3-2.1-3.02-5.72-4.65-9.4-4.2L58.3 7.27c-5.48.67-9.4 5.65-8.74 11.13.66 5.5 5.64 9.4 11.12 8.75l41.44-4.98-21.66 42.06c-2.53 4.9-.6 10.94 4.3 13.46 1.47.75 3.04 1.1 4.58 1.1.63 0 1.24-.07 1.86-.2.62.2 1.27.4 1.98.58 12.6 3.12 20.5 6.87 25.93 10.66l-5.3-11.45c-1.2-2.65-1.26-5.7-.12-8.37z"/><filter id="g" width="121.2%" height="123.1%" x="-10.6%" y="-7.2%" filterUnits="objectBoundingBox"><feMorphology radius="1.5" operator="dilate" in="SourceAlpha" result="shadowSpreadOuter1"/><feOffset dy="2" in="shadowSpreadOuter1" result="shadowOffsetOuter1"/><feGaussianBlur stdDeviation="2" in="shadowOffsetOuter1" result="shadowBlurOuter1"/><feComposite in="shadowBlurOuter1" in2="SourceAlpha" operator="out" result="shadowBlurOuter1"/><feColorMatrix values="0 0 0 0 0 0 0 0 0 0 0 0 0 0 0 0 0 0 0.5 0" in="shadowBlurOuter1"/></filter><path id="j" d="M136.74 68.43l-2.32 5.45 5.22 11.26c1.43-.95 3.1-1.48 4.87-1.48 2.08 0 4.1.74 5.68 2.08 1.8 1.52 2.9 3.64 3.1 5.98.2 2.35-.54 4.62-2.05 6.42l-3.6 4.25 2.43 5.22c.27.6.47 1.18.63 1.8 6.84-1.15 11.45-6.48 12.65-13.12-4.87-4.85-6.08-8.85-6.47-12.13.7-1.54 1.4-3.1 2-4.57.68-1.7 1.25-3.26 1.62-4.52.87.04 1.66-.58 1.8-1.46.16-.96-.5-1.86-1.44-2-.07-.02-.14-.02-.22-.02-2-6.43-10.72-14.17-18.23-3.28-.4.6-.82 1.28-1.22 2-1.53-.62-3-1.25-4.44-1.9z"/><filter id="i" width="159.6%" height="136.9%" x="-29.9%" y="-14%" filterUnits="objectBoundingBox"><feMorphology radius="1.5" operator="dilate" in="SourceAlpha" result="shadowSpreadOuter1"/><feOffset dy="2" in="shadowSpreadOuter1" result="shadowOffsetOuter1"/><feGaussianBlur stdDeviation="2" in="shadowOffsetOuter1" result="shadowBlurOuter1"/><feComposite in="shadowBlurOuter1" in2="SourceAlpha" operator="out" result="shadowBlurOuter1"/><feColorMatrix values="0 0 0 0 0 0 0 0 0 0 0 0 0 0 0 0 0 0 0.5 0" in="shadowBlurOuter1"/></filter><path id="l" d="M189.3 122.36c4.92 3.12 12 4.14 22.45-.95 15.1-7.32 19.86-3.3 21.57.92 1.7 4.2 4.95-9.46-9.47-14.47-4.14-1.44-8.75-.56-13.3.96-.23.52-.5 1.03-.78 1.53-4.33 7.63-12.27 11.94-20.46 12.03z"/><filter id="k" width="144.1%" height="195.3%" x="-25.4%" y="-36.4%" filterUnits="objectBoundingBox"><feMorphology radius="1.5" operator="dilate" in="SourceAlpha" result="shadowSpreadOuter1"/><feOffset dy="2" in="shadowSpreadOuter1" result="shadowOffsetOuter1"/><feGaussianBlur stdDeviation="2" in="shadowOffsetOuter1" result="shadowBlurOuter1"/><feComposite in="shadowBlurOuter1" in2="SourceAlpha" operator="out" result="shadowBlurOuter1"/><feColorMatrix values="0 0 0 0 0 0 0 0 0 0 0 0 0 0 0 0 0 0 0.5 0" in="shadowBlurOuter1"/></filter><circle id="n" cx="189.072" cy="98.574" r="21.499"/><filter id="m" width="139.5%" height="139.5%" x="-19.8%" y="-15.1%" filterUnits="objectBoundingBox"><feMorphology radius="1.5" operator="dilate" in="SourceAlpha" result="shadowSpreadOuter1"/><feOffset dy="2" in="shadowSpreadOuter1" result="shadowOffsetOuter1"/><feGaussianBlur stdDeviation="2" in="shadowOffsetOuter1" result="shadowBlurOuter1"/><feComposite in="shadowBlurOuter1" in2="SourceAlpha" operator="out" result="shadowBlurOuter1"/><feColorMatrix values="0 0 0 0 0 0 0 0 0 0 0 0 0 0 0 0 0 0 0.5 0" in="shadowBlurOuter1"/></filter><path id="p" d="M137.78 86.8c.02-.04.04-.05.06-.08l-5.93-12.8 11.63-27.33c1.73-4.07-.17-8.77-4.23-10.5-4.07-1.73-8.77.17-10.5 4.23l-13 30.6c-.9 2.08-.86 4.44.1 6.5l10.55 22.77 11.33-13.4z"/><filter id="o" width="158.6%" height="128.2%" x="-29.3%" filterUnits="objectBoundingBox"><feMorphology radius="1.5" operator="dilate" in="SourceAlpha" result="shadowSpreadOuter1"/><feOffset dy="2" in="shadowSpreadOuter1" result="shadowOffsetOuter1"/><feGaussianBlur stdDeviation="2" in="shadowOffsetOuter1" result="shadowBlurOuter1"/><feComposite in="shadowBlurOuter1" in2="SourceAlpha" operator="out" result="shadowBlurOuter1"/><feColorMatrix values="0 0 0 0 0 0 0 0 0 0 0 0 0 0 0 0 0 0 0.5 0" in="shadowBlurOuter1"/></filter><path id="r" d="M147.97 108.6l-1.97-4.27-11.08 13.12c1.5 1.6 3.62 2.5 5.8 2.5 1.12 0 2.27-.23 3.36-.74 4-1.84 5.75-6.6 3.9-10.6z"/><filter id="q" width="226.5%" height="216.9%" x="-64.9%" y="-49.7%" filterUnits="objectBoundingBox"><feMorphology radius="1.5" operator="dilate" in="SourceAlpha" result="shadowSpreadOuter1"/><feOffset dy="2" in="shadowSpreadOuter1" result="shadowOffsetOuter1"/><feGaussianBlur stdDeviation="2" in="shadowOffsetOuter1" result="shadowBlurOuter1"/><feComposite in="shadowBlurOuter1" in2="SourceAlpha" operator="out" result="shadowBlurOuter1"/><feColorMatrix values="0 0 0 0 0 0 0 0 0 0 0 0 0 0 0 0 0 0 1 0" in="shadowBlurOuter1"/></filter><path id="t" d="M149.47 96.66c2.32-2.75 1.97-6.85-.77-9.16-2.74-2.32-6.85-1.97-9.16.77l-18.28 21.65-30.43 1.73c-3.6.2-6.33 3.28-6.12 6.86.2 3.47 3.07 6.14 6.5 6.14.12 0 .24 0 .37 0l33.22-1.9c1.77-.1 3.43-.93 4.58-2.3l20.1-23.78z"/><filter id="s" width="125.6%" height="143.9%" x="-12.8%" y="-16.8%" filterUnits="objectBoundingBox"><feMorphology radius="1.5" operator="dilate" in="SourceAlpha" result="shadowSpreadOuter1"/><feOffset dy="2" in="shadowSpreadOuter1" result="shadowOffsetOuter1"/><feGaussianBlur stdDeviation="2" in="shadowOffsetOuter1" result="shadowBlurOuter1"/><feComposite in="shadowBlurOuter1" in2="SourceAlpha" operator="out" result="shadowBlurOuter1"/><feColorMatrix values="0 0 0 0 0 0 0 0 0 0 0 0 0 0 0 0 0 0 0.5 0" in="shadowBlurOuter1"/></filter></defs><g fill="none"><g fill-rule="nonzero"><g id="Path" transform="translate(6 3)"><use fill="#000" filter="url(#a)" xlink:href="#b"/><use fill="#4E4E50" stroke="#1A1A1D" stroke-width="3" xlink:href="#b"/></g><g id="Path" transform="translate(6 3)"><use fill="#000" filter="url(#c)" xlink:href="#d"/><use fill="#4E4E50" stroke="#1A1A1D" stroke-width="3" xlink:href="#d"/></g><g id="Oval" transform="translate(6 3)"><use fill="#000" filter="url(#e)" xlink:href="#f"/><use fill="#4E4E50" stroke="#1A1A1D" stroke-width="3" xlink:href="#f"/></g><g id="Path" transform="translate(6 3)"><use fill="#000" filter="url(#g)" xlink:href="#h"/><use fill="#6F2232" stroke="#1A1A1D" stroke-width="3" xlink:href="#h"/></g><g id="Path" transform="translate(6 3)"><use fill="#000" filter="url(#i)" xlink:href="#j"/><use fill="#6F2232" stroke="#1A1A1D" stroke-width="3" xlink:href="#j"/></g><g id="Path" transform="translate(6 3)"><use fill="#000" filter="url(#k)" xlink:href="#l"/><use fill="#6F2232" stroke="#1A1A1D" stroke-width="3" xlink:href="#l"/></g><g transform="translate(6 3) rotate(-39.839 189.072 98.574)"><use fill="#000" filter="url(#m)" xlink:href="#n"/><use fill="#6F2232" stroke="#1A1A1D" stroke-width="3" xlink:href="#n"/></g><g id="Path" transform="translate(6 3)"><use fill="#000" filter="url(#o)" xlink:href="#p"/><use fill="#4E4E50" stroke="#1A1A1D" stroke-width="3" xlink:href="#p"/></g><g id="Path" transform="translate(6 3)"><use fill="#000" filter="url(#q)" xlink:href="#r"/><use fill="#4E4E50" stroke="#1A1A1D" stroke-width="3" xlink:href="#r"/></g><g transform="translate(6 3)"><use fill="#000" filter="url(#s)" xlink:href="#t"/><use fill="#6F2232" stroke="#1A1A1D" stroke-width="3" xlink:href="#t"/></g></g></g></svg>
